icons/developer-credentials-16.svg

<?xml version="1.0" encoding="UTF-8"?><svg id="icons" xmlns="http://www.w3.org/2000/svg" viewBox="0 0 16 16"><rect width="16" height="16" style="fill:none; stroke-width:0px;"/><path d="M8,9h-2v-1h2v1ZM15.95001,11.5c0,1.35309-1.09692,2.45001-2.45001,2.45001-.07739,0-.15039-.01575-.22595-.02277l-1.97406,2.07275h-2.29999v-1.5l2.16498-2.2962c-.06769-.2243-.11499-.4574-.11499-.7038,0-1.35309,1.09692-2.45001,2.45001-2.45001s2.45001,1.09692,2.45001,2.45001ZM15,11.5c0-.82715-.67285-1.5-1.5-1.5s-1.5.67285-1.5,1.5c0,.35132.12646.67059.32953.92651l-2.32953,2.47095v.10254h.98596l2.01196-2.09277c.15771.05652.32513.09277.50208.09277.82715,0,1.5-.67285,1.5-1.5ZM13,12h1v-1h-1v1ZM9,6h-3v1h3v-1ZM8,14.32001l-.32031.14191c-.11328.05078-.24805.0498-.35938.00098l-5.32031-2.3584V4.09961c0-.39551.2334-.75391.59473-.91406L7.32031,1.0918c.11328-.05078.24805-.0498.35938-.00098l5.32031,2.3584v4.55078h1V2.79883L8.08105.17578c-.37012-.16309-.79395-.16211-1.16406.00098L2.19043,2.27148c-.72363.31934-1.19043,1.03711-1.19043,1.82812v8.65527l5.91895,2.62305c.18457.08105.38086.12207.58105.12207.17194,0,.33887-.03632.5-.09625v-1.08374ZM4,7.5c0-.5296.1272-1.02686.33875-1.47729l-.77917-.65363c-.3454.63696-.55957,1.35547-.55957,2.13098,0,2.48523,2.01477,4.49994,4.5,4.49994.52875,0,1.02869-.10797,1.5-.27551v-1.07556c-.45642.21851-.96118.35107-1.5.35107-1.92969,0-3.5-1.57031-3.5-3.5ZM7.5,3c-.87329,0-1.68158.2597-2.3717.69025l.8208.68854c.46954-.2345.99139-.37878,1.5509-.37878,1.92969,0,3.5,1.57031,3.5,3.5,0,.1712-.02667.33527-.05054.5h1.00012c.01862-.16626.05042-.32867.05042-.49994,0-2.48535-2.01477-4.50006-4.5-4.50006Z" style="fill:#000; stroke-width:0px;"/></svg>

<svg xmlns="http://www.w3.org/2000/svg" viewBox="0 0 16 16"><path fill="none" stroke-width="0" d="M0 0h16v16H0z"/><path d="M8 9H6V8h2v1zm7.95 2.5a2.45 2.45 0 0 1-2.45 2.45c-.077 0-.15-.016-.226-.023L11.3 16H9v-1.5l2.165-2.296a2.422 2.422 0 0 1-.115-.704 2.45 2.45 0 0 1 4.9 0zm-.95 0c0-.827-.673-1.5-1.5-1.5s-1.5.673-1.5 1.5c0 .351.126.67.33.927L10 14.897V15h.986l2.012-2.093c.158.057.325.093.502.093.827 0 1.5-.673 1.5-1.5zm-2 .5h1v-1h-1v1zM9 6H6v1h3V6zm-1 8.32l-.32.142a.45.45 0 0 1-.36 0L2 12.105V4.1a1 1 0 0 1 .595-.914L7.32 1.092a.45.45 0 0 1 .36-.001L13 3.449V8h1V2.799L8.081.176a1.446 1.446 0 0 0-1.164 0L2.19 2.272A1.999 1.999 0 0 0 1 4.1v8.655l5.919 2.623c.185.081.38.122.581.122.172 0 .339-.036.5-.096V14.32zM4 7.5c0-.53.127-1.027.339-1.477l-.78-.654A4.45 4.45 0 0 0 3 7.5 4.5 4.5 0 0 0 7.5 12c.529 0 1.029-.108 1.5-.276V10.65a3.46 3.46 0 0 1-1.5.35C5.57 11 4 9.43 4 7.5zM7.5 3a4.47 4.47 0 0 0-2.372.69l.821.689A3.453 3.453 0 0 1 7.5 4C9.43 4 11 5.57 11 7.5c0 .171-.027.335-.05.5h1c.018-.166.05-.329.05-.5A4.5 4.5 0 0 0 7.5 3z" stroke-width="0"/></svg>
